icons/svg/school.svg

﻿<?xml version="1.0" encoding="utf-8"?>
<!DOCTYPE svg PUBLIC "-//W3C//DTD SVG 1.1//EN" "http://www.w3.org/Graphics/SVG/1.1/DTD/svg11.dtd">
<svg xmlns="http://www.w3.org/2000/svg" xmlns:xlink="http://www.w3.org/1999/xlink" version="1.1" baseProfile="full" width="24" height="24" viewBox="0 0 24.00 24.00" enable-background="new 0 0 24.00 24.00" xml:space="preserve">
	<path fill="#000000" fill-opacity="1" stroke-width="0.2" stroke-linejoin="round" d="M 11.9994,2.99807L 0.99939,8.99807L 11.9994,14.9981L 20.9994,10.0891L 20.9994,16.9981L 22.9994,16.9981L 22.9994,8.99807M 4.99939,13.1801L 4.99939,17.1801L 11.9994,20.9981L 18.9994,17.1801L 18.9994,13.1801L 11.9994,16.9981L 4.99939,13.1801 Z "/>
</svg>

<svg xmlns="http://www.w3.org/2000/svg" version="1.1" baseProfile="full" width="24" height="24" viewBox="0 0 24.00 24.00" xml:space="preserve"><path fill="#000" fill-opacity="1" stroke-width=".2" stroke-linejoin="round" d="M12 2.998l-11 6 11 6 9-4.91V17h2v-8M5 13.18v4l7 3.818 7-3.818v-4l-7 3.818-7-3.818z"/></svg>
